X: 26007
T: Mazur'jazz
R: mazurka
M: 3/4
K: Edorian
E EE|B3B cA|B3 G FG|BA FA GF|G2 EE FE|
B3c Ac|B3 G FG|BA FA GF|1 E3:|2 E4 ED||
E3F GE|G3E FG|BA FA GF|G2 E2 ED|
E3D EF|G3E FG|BA FA GF|1 E4 ED:|2 E3||

